brandFactory_export/2.Regular/Flotador socorrista piscina_2Regular.svg

<?xml version="1.0" encoding="UTF-8"?>
<svg width="24px" height="24px" viewBox="0 0 24 24" version="1.1" xmlns="http://www.w3.org/2000/svg" xmlns:xlink="http://www.w3.org/1999/xlink">
    <title>2.Regular/Flotador socorrista piscina_2Regular</title>
    <g id="Symbols" stroke="none" stroke-width="1" fill="none" fill-rule="evenodd">
        <g id="2.Regular/Flotador-socorrista-piscina_2Regular" fill="#5CB615" fill-rule="nonzero">
            <path d="M15.3042017,21.7378151 L14.6151261,18.410084 C16.0504202,17.9193277 17.6470588,16.8806723 18.4033613,14.7058824 L21.7109244,15.3882353 C20.6554622,19.4319328 17.805042,21.0890756 15.3042017,21.7378151 M12.3260504,22.1411765 C12.1176471,22.1445378 11.8823529,22.1478992 11.6403361,22.1478992 C11.5226891,22.1478992 11.405042,22.1478992 11.2907563,22.1445378 C10.8571429,22.1378151 10.3327731,22.1042017 9.76470588,22.0302521 L10.4403361,18.7663866 C10.8705882,18.8268908 11.2403361,18.8504202 11.4857143,18.8537815 C11.5563025,18.8571429 11.6336134,18.8571429 11.707563,18.8571429 C11.8554622,18.8571429 12.0033613,18.8537815 12.1310924,18.8537815 C12.3697479,18.8504202 12.7361345,18.8268908 13.1764706,18.7630252 L13.8487395,22.0235294 C13.2840336,22.0941176 12.7596639,22.1310924 12.3260504,22.1411765 M1.91932773,15.3882353 L5.2302521,14.7058824 C5.93613445,16.7428571 7.36470588,17.7983193 8.71932773,18.3226891 C8.81680672,18.3596639 8.91092437,18.3831933 9.00840336,18.4168067 L8.31932773,21.7512605 C5.82184874,21.1058824 2.98151261,19.4487395 1.91932773,15.3882353 M1.47563025,11.7747899 C1.47563025,11.0789916 1.52605042,10.4436975 1.6,9.83529412 L4.85042017,10.507563 C4.8,10.907563 4.7697479,11.3310924 4.7697479,11.7915966 C4.7697479,12.3260504 4.81008403,12.8168067 4.87394958,13.2739496 L1.63361345,13.9428571 C1.54285714,13.2672269 1.47563025,12.5613445 1.47563025,11.7747899 M8.2789916,1.84537815 L8.96806723,5.18655462 C7.50252101,5.68067227 5.88571429,6.75630252 5.15966387,9.05882353 L1.85882353,8.37647059 C2.86722689,4.15798319 5.75798319,2.48067227 8.2789916,1.84537815 M11.2,1.4789916 L11.4117647,1.47563025 C11.7042017,1.47563025 12.0067227,1.48235294 12.2689076,1.48907563 C12.7260504,1.50252101 13.2806723,1.54285714 13.8823529,1.6302521 L13.210084,4.88067227 C12.7462185,4.80672269 12.3596639,4.78319328 12.107563,4.77647059 C11.9428571,4.77310924 11.7546218,4.7697479 11.5731092,4.7697479 L11.4420168,4.7697479 C11.2,4.77310924 10.8369748,4.78991597 10.410084,4.85042017 L9.73445378,1.57983193 C10.2789916,1.5092437 10.7798319,1.48235294 11.2,1.4789916 M12.1042017,17.3747899 C11.9865546,17.3781513 11.8487395,17.3781513 11.7109244,17.3781513 L11.5092437,17.3747899 C11.1529412,17.3714286 10.2151261,17.3176471 9.25042017,16.9445378 C7.22689076,16.1613445 6.24537815,14.4739496 6.24537815,11.7848739 C6.24537815,7.00168067 9.50588235,6.25882353 11.4521008,6.24201681 L11.5697479,6.24201681 C11.7411765,6.24201681 11.9159664,6.24537815 12.0705882,6.2487395 C16.8605042,6.36302521 17.3781513,10.1882353 17.3781513,11.8285714 C17.3781513,13.4689076 16.8638655,17.2907563 12.1042017,17.3747899 M21.7344538,8.38655462 L18.4369748,9.06554622 C17.7008403,6.83361345 16.097479,5.75462185 14.6386555,5.24369748 L15.3243697,1.92605042 C17.8487395,2.60504202 20.6991597,4.30252101 21.7344538,8.38655462 M22.1478992,11.8420168 C22.1478992,12.6016807 22.087395,13.287395 21.9966387,13.9394958 L18.7462185,13.2705882 C18.8134454,12.8235294 18.8571429,12.3529412 18.8571429,11.8319328 C18.8571429,11.3546218 18.8201681,10.9210084 18.7663866,10.507563 L22.010084,9.83865546 C22.0907563,10.4638655 22.1478992,11.1193277 22.1478992,11.8420168 M12.3058824,0.0134453782 C12.0336134,0.00672268908 11.7142857,0 11.4117647,0 C11.3344538,0 11.2605042,0 11.1865546,0.00336134454 C8.81680672,0.0235294118 0,0.83697479 0,11.7747899 C0,22.7294118 8.90084034,23.5865546 11.2705882,23.6201681 C11.3915966,23.6235294 11.5159664,23.6235294 11.6403361,23.6235294 C11.8890756,23.6235294 12.1344538,23.6201681 12.3529412,23.6168067 C14.6084034,23.5764706 23.6235294,22.7294118 23.6235294,11.8420168 C23.6235294,0.981512605 14.6184874,0.0672268908 12.3058824,0.0134453782" id="Flotador-socorrista-piscina_2Regular"></path>
        </g>
    </g>
</svg>

<svg width="24" height="24" viewBox="0 0 24 24" xmlns="http://www.w3.org/2000/svg"><path d="M15.304 21.738l-.689-3.328c1.435-.49 3.032-1.53 3.788-3.704l3.308.682c-1.056 4.044-3.906 5.701-6.407 6.35m-2.978.403c-.208.004-.444.007-.686.007-.117 0-.235 0-.35-.003-.433-.007-.957-.04-1.525-.115l.675-3.264c.43.06.8.084 1.046.088.07.003.148.003.222.003.147 0 .295-.003.423-.003a8.39 8.39 0 001.045-.091l.673 3.26c-.565.071-1.09.108-1.523.118M1.92 15.388l3.311-.682c.706 2.037 2.135 3.092 3.49 3.617.097.037.19.06.288.094L8.32 21.75c-2.497-.645-5.337-2.302-6.4-6.363m-.443-3.613c0-.696.05-1.331.124-1.94l3.25.673c-.05.4-.08.823-.08 1.284 0 .534.04 1.025.104 1.482l-3.24.669a15.977 15.977 0 01-.158-2.168m6.803-9.93l.69 3.342c-1.466.494-3.083 1.57-3.81 3.872l-3.3-.683c1.008-4.218 3.899-5.895 6.42-6.53m2.921-.367l.212-.003c.292 0 .595.006.857.013a14.26 14.26 0 011.613.141l-.672 3.25a8.518 8.518 0 00-1.102-.104 26.642 26.642 0 00-.535-.006h-.131c-.242.003-.605.02-1.032.08l-.676-3.27c.545-.07 1.046-.098 1.466-.101m.904 15.896c-.117.003-.255.003-.393.003l-.202-.003a6.784 6.784 0 01-2.259-.43c-2.023-.784-3.005-2.471-3.005-5.16 0-4.783 3.26-5.526 5.207-5.543h.118c.171 0 .346.003.5.007 4.79.114 5.308 3.94 5.308 5.58 0 1.64-.514 5.462-5.274 5.546m9.63-8.988l-3.297.679c-.736-2.232-2.34-3.311-3.798-3.822l.685-3.318c2.525.679 5.375 2.377 6.41 6.46m.414 3.456c0 .76-.06 1.445-.151 2.097l-3.25-.668a9.546 9.546 0 00.02-2.763l3.243-.67c.08.626.138 1.281.138 2.004M12.306.013A37.117 37.117 0 0011.412 0c-.078 0-.151 0-.225.003C8.817.023 0 .837 0 11.775 0 22.729 8.9 23.587 11.27 23.62c.122.004.246.004.37.004.25 0 .494-.004.713-.007 2.255-.04 11.27-.888 11.27-11.775C23.624.982 14.619.067 12.307.013" fill="#5CB615" fill-rule="nonzero"/></svg>
